X:1
T:Crucis Milites, 77.77
T:Crucis Milites, 77.77
T:Myles Birket Foster, 1889
T:Public Domain Courtesy of the Cyber Hymnal™
C:Myles Birket Foster, 1889
Z:Public Domain
Z:Courtesy of the Cyber Hymnal™
%%score ( 1 2 ) ( 3 4 )
L:1/8
Q:1/4=115
M:none
K:F
V:1 treble 
V:2 treble 
V:3 bass 
V:4 bass 
V:1
 [Fc]2 [FA]2 [EG]2 F2 | B2 z [Ac]4 x2 | [Ff]2 [Fc]2 [Fd]2 [Fc]2 | [FA]2 (GF) G4 | %4
 G3 G [GB]2 [GB]2 | [GA]2 [^FA]2 [GB]4 | [Gc]3 [GB] [FA]2 F2 | [FG]2 [EG]2 F4 |] %8
V:2
 x6 F2 | F3 (d2 G) x3 | x8 | x2 F2 (F2 E2) | G3 G x4 | x8 | x6 F2 | x4 F4 |] %8
V:3
 [F,A,]2 [F,C]2 [C,C]2 [D,A,]2 | D3 z E [F,F]4 | [A,C]2 [A,C]2 B,2 [A,C]2 | %3
 [F,C]2 [D,=B,]2 [C,C]4 | [B,,D]3 [B,,D] [G,,B,]2 [B,,D]2 | [C,_E]2 [D,D]2 D4 | %6
 [E,E]3 [E,E] [F,C]2 [A,C]2 | C2 z A, [F,A,]4 |] %8
V:4
 x8 | B,,2 B,2 x5 | x4 B,2 x2 | x8 | x8 | x4 (G,2 F,2) | x8 | C3 C,2 x3 |] %8

